app/src/main/assets/symbols/amenity/telephone.svg

<?xml version="1.0" encoding="UTF-8" standalone="no"?>
<svg
   xmlns:dc="http://purl.org/dc/elements/1.1/"
   xmlns:cc="http://creativecommons.org/ns#"
   xmlns:rdf="http://www.w3.org/1999/02/22-rdf-syntax-ns#"
   xmlns:svg="http://www.w3.org/2000/svg"
   xmlns="http://www.w3.org/2000/svg"
   version="1.1"
   width="16"
   height="16"
   viewBox="0 0 16 16"
   id="svg2">
  <metadata id="metadata8">
    <rdf:RDF>
      <cc:Work rdf:about="">
        <dc:format>image/svg+xml</dc:format>
        <dc:type rdf:resource="http://purl.org/dc/dcmitype/StillImage"/>
        <dc:title/>
      </cc:Work>
    </rdf:RDF>
  </metadata>
  <defs id="defs6"/>
  <rect width="16" height="16" x="0" y="0" id="canvas" style="fill:none;stroke:none;visibility:hidden"/>
  <path d="M 2,8 C 1.0118212,8.9881788 0.56004859,10.573569 1.5487288,11.552966 L 2,12 5,9 5,7.5 7.5,5 9,5 12,2 11.489407,1.512712 C 10.513874,0.58170546 8.9807634,1.0192366 8,2 z m 0.5451482,4.537558 0.3387857,0.352887 c 0,0 0.8501688,0.07591 1.2889221,-0.356167 L 5.5665554,11.161784 C 5.9484277,10.759801 5.8738707,9.8572254 5.8738707,9.8572254 L 5.5350852,9.504338 z M 9.5530473,5.5203307 9.8918329,5.8732169 c 0,0 0.8697361,0.1575408 1.2643511,-0.2310704 l 1.393699,-1.372494 C 12.944768,3.8807753 12.87203,2.8612795 12.87203,2.8612795 L 12.533244,2.5083933 z" id="telephone" style="color:#000000;fill:#734a08;fill-opacity:1;stroke-width:1;marker:none;visibility:visible;display:inline;overflow:visible;enable-background:accumulate" transform="translate(1,1)"/>
</svg>

<?xml version="1.0" encoding="UTF-8"?>
<svg version="1.1" viewBox="0 0 16 16" xmlns="http://www.w3.org/2000/svg" xmlns:cc="http://creativecommons.org/ns#" xmlns:dc="http://purl.org/dc/elements/1.1/" xmlns:rdf="http://www.w3.org/1999/02/22-rdf-syntax-ns#">
<metadata>
<rdf:RDF>
<cc:Work rdf:about="">
<dc:format>image/svg+xml</dc:format>
<dc:type rdf:resource="http://purl.org/dc/dcmitype/StillImage"/>
<dc:title/>
</cc:Work>
</rdf:RDF>
</metadata>
<rect width="16" height="16" fill="none" visibility="hidden"/>
<path transform="translate(1,1)" d="m2 8c-0.98818 0.98818-1.44 2.5736-0.45127 3.553l0.45127 0.44703 3-3v-1.5l2.5-2.5h1.5l3-3-0.51059-0.48729c-0.97553-0.93101-2.5086-0.49348-3.4894 0.48729zm0.54515 4.5376 0.33879 0.35289s0.85017 0.07591 1.2889-0.35617l1.3937-1.3725c0.38187-0.40198 0.30732-1.3046 0.30732-1.3046l-0.33879-0.35289zm7.0079-7.0172 0.33879 0.35289s0.86974 0.15754 1.2644-0.23107l1.3937-1.3725c0.39488-0.38888 0.32215-1.4084 0.32215-1.4084l-0.33879-0.35289z" color="#000000" fill="#734a08"/>
</svg>
